!!!OTL: Biandange
!!!ARE: Asia, China, Fujian Longyan
!! II, 573
!!!SCT: C1997
!!!YEM: Copyright 1995, estate of Helmut Schaffrath.
**kern
*ICvox
*Ivox
*M4/4
*k[f#c#]
*D:
{4b
4f#
4f#
4b
=1
4b
4dd
2b}
=2
{4b
4f#
4f#
4b
=3
2b
16f#
16a
4.f#}
=4
{4b
4f#
4f#
4b
=5
4b
4dd
2b}
=6
{4b
4f#
4f#
4b
=7
2b
16f#
16a
4.f#}
==
!!!AGN: Shange
!!!AMT: simple quadruple
!!!AIN: vox
!!!EED: Helmut Schaffrath
!!!EEV: 1.0
*-
